gem_puzzle_fe/src/assets/icon/enefftee-logo-small.svg

<?xml version="1.0" encoding="UTF-8"?>
<svg width="87px" height="26px" viewBox="0 0 87 26" version="1.1" xmlns="http://www.w3.org/2000/svg" xmlns:xlink="http://www.w3.org/1999/xlink">
    <title>AF75BC5A-2D1D-4024-882E-F14B822E8DF2</title>
    <g id="Page-1" stroke="none" stroke-width="1" fill="none" fill-rule="evenodd">
        <g id="game-enefftee-puzzle-welcome" transform="translate(-897.000000, -879.000000)" fill-rule="nonzero">
            <g id="enefftee-logo-small" transform="translate(897.000000, 879.000000)">
                <path d="M35.4880479,17.7666667 L35.4880479,15.9271667 L31.1005479,15.9271667 L30.7040479,15.5306667 L30.7040479,15.2771667 L34.2400479,15.2771667 L35.5790479,13.9381667 L35.5790479,12.0856667 L34.2400479,10.7466667 L30.2035479,10.7466667 L28.8645479,12.0856667 L28.8645479,16.4276667 L30.2035479,17.7666667 L35.4880479,17.7666667 Z M33.4730479,13.5026667 L30.7040479,13.5026667 L30.7040479,12.9826667 L31.1005479,12.5861667 L33.3430479,12.5861667 L33.7460479,12.9826667 L33.7460479,13.2296667 L33.4730479,13.5026667 Z M38.8420479,17.7666667 L38.8420479,12.9826667 L39.2385479,12.5861667 L41.0195479,12.5861667 L41.4160479,12.9826667 L41.4160479,17.7666667 L43.2490479,17.7666667 L43.2490479,12.0856667 L41.9100479,10.7466667 L38.3480479,10.7466667 L37.0090479,12.0856667 L37.0090479,17.7666667 L38.8420479,17.7666667 Z M51.3025479,17.7666667 L51.3025479,15.9271667 L46.9150479,15.9271667 L46.5185479,15.5306667 L46.5185479,15.2771667 L50.0545479,15.2771667 L51.3935479,13.9381667 L51.3935479,12.0856667 L50.0545479,10.7466667 L46.0180479,10.7466667 L44.6790479,12.0856667 L44.6790479,16.4276667 L46.0180479,17.7666667 L51.3025479,17.7666667 Z M49.2875479,13.5026667 L46.5185479,13.5026667 L46.5185479,12.9826667 L46.9150479,12.5861667 L49.1575479,12.5861667 L49.5605479,12.9826667 L49.5605479,13.2296667 L49.2875479,13.5026667 Z M55.7485479,17.7666667 L55.7485479,12.5796667 L57.7830479,12.5796667 L57.7830479,10.7466667 L55.7485479,10.7466667 L55.7485479,10.0186667 L56.0345479,9.72616667 L57.7830479,9.72616667 L57.7830479,8.01666667 L55.2480479,8.01666667 L53.9090479,9.35566667 L53.9090479,10.7466667 L52.5960479,10.7466667 L52.5960479,12.5796667 L53.9090479,12.5796667 L53.9090479,17.7666667 L55.7485479,17.7666667 Z M62.1380479,17.7666667 L62.1380479,12.5796667 L64.1725479,12.5796667 L64.1725479,10.7466667 L62.1380479,10.7466667 L62.1380479,10.0186667 L62.4240479,9.72616667 L64.1725479,9.72616667 L64.1725479,8.01666667 L61.6375479,8.01666667 L60.2985479,9.35566667 L60.2985479,10.7466667 L58.9855479,10.7466667 L58.9855479,12.5796667 L60.2985479,12.5796667 L60.2985479,17.7666667 L62.1380479,17.7666667 Z M70.1980479,17.7666667 L70.1980479,15.9271667 L68.6315479,15.9271667 L68.6315479,12.5796667 L70.2435479,12.5796667 L70.2435479,10.7466667 L68.6315479,10.7466667 L68.6315479,8.96566667 L66.7920479,8.96566667 L66.7920479,10.7466667 L65.1735479,10.7466667 L65.1735479,12.5796667 L66.7920479,12.5796667 L66.7920479,17.7666667 L70.1980479,17.7666667 Z M78.2970479,17.7666667 L78.2970479,15.9271667 L73.9095479,15.9271667 L73.5130479,15.5306667 L73.5130479,15.2771667 L77.0490479,15.2771667 L78.3880479,13.9381667 L78.3880479,12.0856667 L77.0490479,10.7466667 L73.0125479,10.7466667 L71.6735479,12.0856667 L71.6735479,16.4276667 L73.0125479,17.7666667 L78.2970479,17.7666667 Z M76.2820479,13.5026667 L73.5130479,13.5026667 L73.5130479,12.9826667 L73.9095479,12.5861667 L76.1520479,12.5861667 L76.5550479,12.9826667 L76.5550479,13.2296667 L76.2820479,13.5026667 Z M86.4415479,17.7666667 L86.4415479,15.9271667 L82.0540479,15.9271667 L81.6575479,15.5306667 L81.6575479,15.2771667 L85.1935479,15.2771667 L86.5325479,13.9381667 L86.5325479,12.0856667 L85.1935479,10.7466667 L81.1570479,10.7466667 L79.8180479,12.0856667 L79.8180479,16.4276667 L81.1570479,17.7666667 L86.4415479,17.7666667 Z M84.4265479,13.5026667 L81.6575479,13.5026667 L81.6575479,12.9826667 L82.0540479,12.5861667 L84.2965479,12.5861667 L84.6995479,12.9826667 L84.6995479,13.2296667 L84.4265479,13.5026667 Z" id="enefftee" fill="#FFFFFF"></path>
                <path d="M11.6460552,0.0297577834 L11.7267503,0.0669550127 L22.6937122,6.33569108 C22.8255317,6.41101653 22.9153157,6.54040279 22.9415821,6.68688069 L22.9495479,6.77652268 L22.9495479,19.0627802 C22.9495479,19.2129656 22.8832502,19.3537706 22.7711672,19.4492839 L22.6985872,19.5008696 L11.7316253,25.9302774 C11.652305,25.9767422 11.5635395,26 11.474774,26 C11.4155969,26 11.3564199,25.9896858 11.3000415,25.9690272 L11.2179226,25.9302774 L0.250960692,19.5008696 C0.121426314,19.4249094 0.0335043076,19.2964753 0.00779514936,19.1514785 L0,19.0627802 L0,6.77657346 C0,6.62473767 0.0678140614,6.48256442 0.181960091,6.38708165 L0.255835688,6.33569108 L11.2227469,0.0669550127 C11.3528314,-0.00743944586 11.507707,-0.0198385223 11.6460552,0.0297577834 Z M2.7287278,19.7761545 L10.9669619,24.6058529 L10.9669619,20.5308139 L2.7287278,19.7761545 Z M20.2208201,19.7761545 L11.982586,20.5308139 L11.982586,24.6058529 L20.2208201,19.7761545 Z M5.43308063,10.6185775 L1.30446748,18.625808 L10.5448178,19.4722798 L9.42872146,17.5414074 C7.7014979,16.7587446 6.5,15.0196847 6.5,13 C6.5,12.8346482 6.5080533,12.6711774 6.52378906,12.5099583 L5.43308063,10.6185775 Z M17.5164165,10.6185267 L16.4401725,12.4829985 C16.4576898,12.6529447 16.4666667,12.825424 16.4666667,13 C16.4666667,15.0291066 15.2539326,16.774964 13.5137384,17.5522983 L12.4047301,19.4722798 L21.6450804,18.625808 L17.5164165,10.6185267 Z M10.833039,17.9412878 L11.474774,19.0517607 L12.1146366,17.9437257 C11.9078831,17.9698634 11.6971812,17.9833333 11.4833333,17.9833333 C11.262934,17.9833333 11.0458765,17.9690254 10.833039,17.9412878 Z M1.01562401,7.6489437 L1.01562401,16.9697823 L4.73306178,9.76007055 L1.01562401,7.6489437 Z M21.9339239,7.64889292 L18.2164861,9.76001977 L21.9339239,16.9697823 L21.9339239,7.64889292 Z M11.4833333,9.1 C9.32942281,9.1 7.58333333,10.8460895 7.58333333,13 C7.58333333,15.1539105 9.32942281,16.9 11.4833333,16.9 C13.6372439,16.9 15.3833333,15.1539105 15.3833333,13 C15.3833333,10.8460895 13.6372439,9.1 11.4833333,9.1 Z M12.5512833,10.842 L13.31005,11.6007667 L13.31005,12.6505167 L12.5512833,13.4092833 L10.54755,13.4092833 L10.54755,13.5529333 L10.7722333,13.7776167 L13.2584833,13.7776167 L13.2584833,14.82 L10.2639333,14.82 L9.50516667,14.0612333 L9.50516667,11.6007667 L10.2639333,10.842 L12.5512833,10.842 Z M12.3560667,11.20665 L10.4517833,11.20665 L9.84403333,11.8144 L9.84403333,13.8697 L10.4296833,14.45535 L12.86805,14.45535 L12.86805,14.1533167 L10.5733333,14.1533167 L10.1460667,13.7297333 L10.1460667,13.0556833 L12.38185,13.0556833 L12.9380333,12.5068667 L12.9380333,11.7886167 L12.3560667,11.20665 Z M12.2124167,11.5123667 L12.6323167,11.9249 L12.6323167,12.3926833 L12.2639833,12.7610167 L10.1460667,12.7610167 L10.1460667,11.9543667 L10.5954333,11.5123667 L12.2124167,11.5123667 Z M12.0429833,11.8843833 L10.7722333,11.8843833 L10.54755,12.1090667 L10.54755,12.4037333 L12.11665,12.4037333 L12.27135,12.2490333 L12.27135,12.1090667 L12.0429833,11.8843833 Z M7.45394825,10.0672301 L6.28747433,10.0670937 L6.87816924,11.0923652 C7.02983361,10.7266469 7.22379395,10.3829013 7.45394825,10.0672301 Z M16.6620736,10.0670937 L15.5127184,10.0672301 C15.7392887,10.3779856 15.9307835,10.715948 16.0813814,11.0752961 L16.6620736,10.0670937 Z M11.474774,1.41991854 L6.35963441,9.05146968 L8.44328996,9.0510517 C9.28456921,8.40244434 10.3388997,8.01666667 11.4833333,8.01666667 C12.6278559,8.01666667 13.6822612,8.40250425 14.5235727,9.05120279 L16.5899135,9.05146968 L11.474774,1.41991854 Z M13.1013466,2.02248826 L17.7009046,8.88480578 L21.4159556,6.77510081 L13.1013466,2.02248826 Z M9.8482521,2.02248826 L1.53364303,6.77510081 L5.24864331,8.88485656 L9.8482521,2.02248826 Z" id="Combined-Shape" fill="#00FF64"></path>
            </g>
        </g>
    </g>
</svg>

<svg width="87" height="26" xmlns="http://www.w3.org/2000/svg">
    <g fill-rule="nonzero" fill="none">
        <path d="M35.488 17.767v-1.84h-4.387l-.397-.396v-.254h3.536l1.339-1.339v-1.852l-1.339-1.34h-4.036l-1.34 1.34v4.342l1.34 1.339h5.284zm-2.015-4.264h-2.769v-.52l.397-.397h2.242l.403.397v.247l-.273.273zm5.369 4.264v-4.784l.397-.397h1.78l.397.397v4.784h1.833v-5.681l-1.339-1.34h-3.562l-1.339 1.34v5.68h1.833zm12.46 0v-1.84h-4.387l-.396-.396v-.254h3.536l1.339-1.339v-1.852l-1.34-1.34h-4.036l-1.339 1.34v4.342l1.339 1.339h5.285zm-2.014-4.264h-2.77v-.52l.397-.397h2.243l.403.397v.247l-.273.273zm6.46 4.264V12.58h2.035v-1.833h-2.034v-.728l.286-.293h1.748v-1.71h-2.535l-1.339 1.34v1.39h-1.313v1.834h1.313v5.187h1.84zm6.39 0V12.58h2.035v-1.833h-2.035v-.728l.286-.293h1.749v-1.71h-2.535l-1.34 1.34v1.39h-1.312v1.834h1.313v5.187h1.839zm8.06 0v-1.84h-1.566V12.58h1.612v-1.833h-1.612V8.966h-1.84v1.78h-1.618v1.834h1.618v5.187h3.406zm8.099 0v-1.84H73.91l-.397-.396v-.254h3.536l1.339-1.339v-1.852l-1.339-1.34h-4.036l-1.34 1.34v4.342l1.34 1.339h5.284zm-2.015-4.264h-2.769v-.52l.397-.397h2.242l.403.397v.247l-.273.273zm10.16 4.264v-1.84h-4.388l-.396-.396v-.254h3.536l1.339-1.339v-1.852l-1.34-1.34h-4.036l-1.339 1.34v4.342l1.339 1.339h5.285zm-2.015-4.264h-2.77v-.52l.397-.397h2.243l.403.397v.247l-.273.273z" fill="#FFF"/>
        <path d="m11.646.03.08.037 10.968 6.269a.508.508 0 0 1 .248.35l.008.09v12.287c0 .15-.067.29-.179.386l-.072.052-10.967 6.43a.508.508 0 0 1-.432.038l-.082-.039L.25 19.5a.508.508 0 0 1-.243-.349L0 19.063V6.777c0-.152.068-.294.182-.39l.074-.051L11.223.067a.508.508 0 0 1 .423-.037zM2.73 19.776l8.238 4.83V20.53l-8.238-.755zm17.492 0-8.238.755v4.075l8.238-4.83zM5.433 10.62l-4.129 8.007 9.24.846-1.115-1.93a4.984 4.984 0 0 1-2.905-5.032l-1.09-1.891zm12.083 0-1.076 1.864a4.984 4.984 0 0 1-2.926 5.07l-1.11 1.92 9.241-.847-4.129-8.007zm-6.683 7.322.642 1.11.64-1.107a5.032 5.032 0 0 1-1.282-.003zM1.016 7.65v9.32L4.733 9.76 1.016 7.65zm20.918 0L18.216 9.76l3.718 7.21V7.649zM11.484 9.1a3.9 3.9 0 1 0 0 7.8 3.9 3.9 0 0 0 0-7.8zm1.067 1.742.76.759v1.05l-.76.758h-2.003v.144l.224.225h2.486v1.042h-2.994l-.759-.759v-2.46l.759-.759h2.287zm-.195.365h-1.904l-.608.607v2.056l.586.585h2.438v-.302h-2.295l-.427-.423v-.674h2.236l.556-.55v-.717l-.582-.582zm-.144.305.42.413v.468l-.368.368h-2.118v-.807l.45-.442h1.616zm-.169.372h-1.27l-.225.225v.295h1.569l.154-.155v-.14l-.228-.225zm-4.59-1.817H6.288l.591 1.025c.152-.365.346-.71.576-1.025zm9.21 0h-1.15c.226.311.418.649.568 1.008l.581-1.008zM11.474 1.42 6.36 9.05h2.083a4.962 4.962 0 0 1 3.04-1.034c1.145 0 2.2.386 3.04 1.034h2.067L11.475 1.42zm1.626.602 4.6 6.863 3.715-2.11-8.315-4.753zm-3.253 0L1.534 6.775l3.715 2.11 4.6-6.863z" fill="#00FF64"/>
    </g>
</svg>
